icons/CurrencyYen_filled.svg

<svg width="24" height="24" viewBox="0 0 24 24" fill="none" xmlns="http://www.w3.org/2000/svg">
<path fill-rule="evenodd" clip-rule="evenodd" d="M5.24995,2.99994c0.55229,-0.41422 1.33579,-0.30229 1.75,0.25l5.00005,6.66666l5,-6.66666c0.4142,-0.55229 1.1977,-0.66422 1.75,-0.25c0.5522,0.41421 0.6642,1.19771 0.25,1.75l-4.6875,6.24996h2.6874c0.6903,0 1.25,0.5596 1.25,1.25c0,0.6903 -0.5597,1.25 -1.25,1.25h-3.7499v1.25h3.7499c0.6903,0 1.25,0.5596 1.25,1.25c0,0.6903 -0.5597,1.25 -1.25,1.25h-3.7499v2.75c0,0.6904 -0.5597,1.25 -1.25,1.25c-0.6904,0 -1.25,-0.5596 -1.25,-1.25v-2.75h-3.75014c-0.69035,0 -1.25,-0.5597 -1.25,-1.25c0,-0.6904 0.55965,-1.25 1.25,-1.25h3.75014v-1.25h-3.75014c-0.69035,0 -1.25,-0.5597 -1.25,-1.25c0,-0.6904 0.55965,-1.25 1.25,-1.25h2.68756l-4.68747,-6.24996c-0.41421,-0.55229 -0.30228,-1.33579 0.25,-1.75z" fill="#002B51"/>
</svg>

<svg width="24" height="24" viewBox="0 0 24 24" fill="none" xmlns="http://www.w3.org/2000/svg">
<path fill-rule="evenodd" clip-rule="evenodd" d="M5.24995 2.99994C5.80224 2.58572 6.58574 2.69765 6.99995 3.24994L12 9.9166L17 3.24994C17.4142 2.69765 18.1977 2.58572 18.75 2.99994C19.3022 3.41415 19.4142 4.19765 19 4.74994L14.3125 10.9999H16.9999C17.6902 10.9999 18.2499 11.5595 18.2499 12.2499C18.2499 12.9402 17.6902 13.4999 16.9999 13.4999H13.25V14.7499H16.9999C17.6902 14.7499 18.2499 15.3095 18.2499 15.9999C18.2499 16.6902 17.6902 17.2499 16.9999 17.2499H13.25V19.9999C13.25 20.6903 12.6903 21.2499 12 21.2499C11.3096 21.2499 10.75 20.6903 10.75 19.9999V17.2499H6.99986C6.30951 17.2499 5.74986 16.6902 5.74986 15.9999C5.74986 15.3095 6.30951 14.7499 6.99986 14.7499H10.75V13.4999H6.99986C6.30951 13.4999 5.74986 12.9402 5.74986 12.2499C5.74986 11.5595 6.30951 10.9999 6.99986 10.9999H9.68742L4.99995 4.74994C4.58574 4.19765 4.69767 3.41415 5.24995 2.99994Z" fill="#002B51"/>
</svg>
